austria/municipalities/70617.svg

<?xml version="1.0" encoding="UTF-8"?>
<!DOCTYPE svg PUBLIC "-//W3C//DTD SVG 1.1//EN" "http://www.w3.org/Graphics/SVG/1.1/DTD/svg11.dtd">
<svg xmlns="http://www.w3.org/2000/svg" version="1.1" width="166px" height="192px" style="shape-rendering:geometricPrecision; text-rendering:geometricPrecision; image-rendering:optimizeQuality; fill-rule:evenodd; clip-rule:evenodd" xmlns:xlink="http://www.w3.org/1999/xlink">
<g><path style="opacity:1" fill="#0a0805" d="M -0.5,-0.5 C 54.8333,-0.5 110.167,-0.5 165.5,-0.5C 165.5,39.5 165.5,79.5 165.5,119.5C 157.038,159.629 132.705,183.629 92.5,191.5C 85.5,191.5 78.5,191.5 71.5,191.5C 30.9271,182.927 6.9271,158.261 -0.5,117.5C -0.5,78.1667 -0.5,38.8333 -0.5,-0.5 Z"/></g>
<g><path style="opacity:1" fill="#e5a41c" d="M 4.5,4.5 C 30.328,3.5022 56.328,3.16887 82.5,3.5C 82.6665,13.1724 82.4998,22.8391 82,32.5C 79.9592,33.4231 77.7925,33.7564 75.5,33.5C 63.2803,35.0284 52.447,39.6951 43,47.5C 29.9305,33.2701 17.0972,18.9368 4.5,4.5 Z"/></g>
<g><path style="opacity:1" fill="#185b2a" d="M 160.5,4.5 C 147.684,18.7606 134.85,33.094 122,47.5C 113.445,40.2534 103.611,35.5867 92.5,33.5C 89.5525,33.7771 86.7191,33.4438 84,32.5C 83.5002,22.8391 83.3335,13.1724 83.5,3.5C 109.339,3.16889 135.005,3.50223 160.5,4.5 Z"/></g>
<g><path style="opacity:1" fill="#3b2e18" d="M 160.5,5.5 C 160.5,5.16667 160.5,4.83333 160.5,4.5C 161.833,18.9846 162.499,33.818 162.5,49C 162.5,64.0038 162.167,78.8371 161.5,93.5C 161.831,63.9953 161.498,34.6619 160.5,5.5 Z"/></g>
<g><path style="opacity:1" fill="#e6a51c" d="M 160.5,5.5 C 161.498,34.6619 161.831,63.9953 161.5,93.5C 155.833,93.5 150.167,93.5 144.5,93.5C 143.223,75.9399 136.223,60.9399 123.5,48.5C 136.078,34.3218 148.411,19.9885 160.5,5.5 Z"/></g>
<g><path style="opacity:1" fill="#185b2a" d="M 3.5,5.5 C 16.1865,19.5205 28.5198,33.8538 40.5,48.5C 31.0222,58.7867 24.6888,70.7867 21.5,84.5C 21.5,87.5 21.5,90.5 21.5,93.5C 15.5,93.5 9.5,93.5 3.5,93.5C 3.5,64.1667 3.5,34.8333 3.5,5.5 Z"/></g>
<g><path style="opacity:1" fill="#18170d" d="M 3.5,5.5 C 3.5,4.83333 3.83333,4.5 4.5,4.5C 17.0972,18.9368 29.9305,33.2701 43,47.5C 52.447,39.6951 63.2803,35.0284 75.5,33.5C 76.5676,34.4345 77.901,34.7678 79.5,34.5C 66.3243,35.4131 54.6576,40.2465 44.5,49C 48.3333,53.5 52.1667,58 56,62.5C 61.9779,58.2595 68.4779,55.2595 75.5,53.5C 75.5,54.1667 75.8333,54.5 76.5,54.5C 69.4159,56.042 63.0826,59.2087 57.5,64C 65.289,73.087 72.9557,82.2537 80.5,91.5C 80.5,91.8333 80.5,92.1667 80.5,92.5C 80.5,93.1667 80.1667,93.5 79.5,93.5C 71.9007,84.059 64.0673,74.7256 56,65.5C 47.7362,73.0259 43.5695,82.3592 43.5,93.5C 42.8333,92.1667 42.1667,90.8333 41.5,89.5C 43.1756,79.4821 47.5089,70.8154 54.5,63.5C 51.2077,58.5399 47.2077,54.2066 42.5,50.5C 31.6469,60.2089 24.9803,72.2089 22.5,86.5C 22.6716,85.5084 22.3382,84.8417 21.5,84.5C 24.6888,70.7867 31.0222,58.7867 40.5,48.5C 28.5198,33.8538 16.1865,19.5205 3.5,5.5 Z"/></g>
<g><path style="opacity:1" fill="#185b2a" d="M 79.5,34.5 C 81.4563,40.412 82.1229,46.7453 81.5,53.5C 79.5,53.5 77.5,53.5 75.5,53.5C 68.4779,55.2595 61.9779,58.2595 56,62.5C 52.1667,58 48.3333,53.5 44.5,49C 54.6576,40.2465 66.3243,35.4131 79.5,34.5 Z"/></g>
<g><path style="opacity:1" fill="#e6a41c" d="M 89.5,34.5 C 101.484,36.3236 112.151,41.1569 121.5,49C 117.678,53.8216 113.512,58.3216 109,62.5C 102.538,57.8452 95.3717,54.8452 87.5,53.5C 86.1667,53.5 84.8333,53.5 83.5,53.5C 83.5,47.1667 83.5,40.8333 83.5,34.5C 85.5,34.5 87.5,34.5 89.5,34.5 Z"/></g>
<g><path style="opacity:1" fill="#e6a41c" d="M 41.5,89.5 C 41.5,90.8333 41.5,92.1667 41.5,93.5C 35.1667,93.5 28.8333,93.5 22.5,93.5C 22.5,91.1667 22.5,88.8333 22.5,86.5C 24.9803,72.2089 31.6469,60.2089 42.5,50.5C 47.2077,54.2066 51.2077,58.5399 54.5,63.5C 47.5089,70.8154 43.1756,79.4821 41.5,89.5 Z"/></g>
<g><path style="opacity:1" fill="#e5a41c" d="M 76.5,54.5 C 78.1667,54.5 79.8333,54.5 81.5,54.5C 81.8286,67.0113 81.4952,79.3446 80.5,91.5C 72.9557,82.2537 65.289,73.087 57.5,64C 63.0826,59.2087 69.4159,56.042 76.5,54.5 Z"/></g>
<g><path style="opacity:1" fill="#886522" d="M 81.5,54.5 C 82.4952,66.6554 82.8286,78.9887 82.5,91.5C 82.5,91.8333 82.5,92.1667 82.5,92.5C 81.8333,92.5 81.1667,92.5 80.5,92.5C 80.5,92.1667 80.5,91.8333 80.5,91.5C 81.4952,79.3446 81.8286,67.0113 81.5,54.5 Z"/></g>
<g><path style="opacity:1" fill="#185a2a" d="M 83.5,55.5 C 92.8383,55.1784 100.838,58.1784 107.5,64.5C 99.7176,73.7606 91.7176,82.7606 83.5,91.5C 83.5,79.5 83.5,67.5 83.5,55.5 Z"/></g>
<g><path style="opacity:1" fill="#185b2a" d="M 79.5,93.5 C 67.5,93.5 55.5,93.5 43.5,93.5C 43.5695,82.3592 47.7362,73.0259 56,65.5C 64.0673,74.7256 71.9007,84.059 79.5,93.5 Z"/></g>
<g><path style="opacity:1" fill="#e5a41c" d="M 122.5,93.5 C 109.656,93.8287 96.989,93.4954 84.5,92.5C 92.5936,83.3421 100.927,74.3421 109.5,65.5C 118.052,72.8016 122.385,82.135 122.5,93.5 Z"/></g>
<g><path style="opacity:1" fill="#14140b" d="M 160.5,4.5 C 160.5,4.83333 160.5,5.16667 160.5,5.5C 148.411,19.9885 136.078,34.3218 123.5,48.5C 136.223,60.9399 143.223,75.9399 144.5,93.5C 150.167,94.1667 155.833,94.8333 161.5,95.5C 155.833,95.5 150.167,95.5 144.5,95.5C 144.011,113.321 137.344,128.321 124.5,140.5C 129.146,146.811 134.146,152.811 139.5,158.5C 138.833,158.5 138.5,158.833 138.5,159.5C 132.846,153.843 127.513,147.843 122.5,141.5C 111.412,150.42 98.7451,155.42 84.5,156.5C 83.5014,166.812 83.1681,177.145 83.5,187.5C 82.8333,187.5 82.1667,187.5 81.5,187.5C 81.5,177.167 81.5,166.833 81.5,156.5C 67.116,155.874 54.2827,151.207 43,142.5C 36.7074,148.425 30.874,154.759 25.5,161.5C 25.5,160.833 25.1667,160.5 24.5,160.5C 30.1438,153.853 35.8105,147.186 41.5,140.5C 31.8122,131.461 25.4789,120.461 22.5,107.5C 23.1667,107.5 23.5,107.167 23.5,106.5C 25.4062,114.284 28.5729,121.617 33,128.5C 35.6465,132.314 38.8132,135.647 42.5,138.5C 47.1888,134.778 51.1888,130.445 54.5,125.5C 47.8362,119.175 43.5029,111.508 41.5,102.5C 42.404,101.791 42.7373,100.791 42.5,99.5C 43.8782,109.427 48.3782,117.76 56,124.5C 63.6984,115.307 71.5317,106.307 79.5,97.5C 79.8333,97.5 80.1667,97.5 80.5,97.5C 72.8798,106.795 65.2131,116.128 57.5,125.5C 64.447,131.261 72.447,134.261 81.5,134.5C 81.5,122.167 81.5,109.833 81.5,97.5C 81.8333,97.5 82.1667,97.5 82.5,97.5C 82.1714,110.011 82.5048,122.345 83.5,134.5C 93.1003,134.579 101.434,131.412 108.5,125C 100.374,115.895 92.3744,106.729 84.5,97.5C 84.5,97.1667 84.5,96.8333 84.5,96.5C 96.9671,94.84 109.634,93.84 122.5,93.5C 122.385,82.135 118.052,72.8016 109.5,65.5C 100.927,74.3421 92.5936,83.3421 84.5,92.5C 83.8333,92.5 83.1667,92.5 82.5,92.5C 82.5,92.1667 82.5,91.8333 82.5,91.5C 82.8333,91.5 83.1667,91.5 83.5,91.5C 91.7176,82.7606 99.7176,73.7606 107.5,64.5C 100.838,58.1784 92.8383,55.1784 83.5,55.5C 84.8333,54.8333 86.1667,54.1667 87.5,53.5C 95.3717,54.8452 102.538,57.8452 109,62.5C 113.512,58.3216 117.678,53.8216 121.5,49C 112.151,41.1569 101.484,36.3236 89.5,34.5C 90.791,34.7373 91.791,34.404 92.5,33.5C 103.611,35.5867 113.445,40.2534 122,47.5C 134.85,33.094 147.684,18.7606 160.5,4.5 Z"/></g>
<g><path style="opacity:1" fill="#185b2a" d="M 121.5,50.5 C 124.394,51.8823 126.894,53.8823 129,56.5C 137.43,67.3675 141.93,79.7009 142.5,93.5C 136.5,93.5 130.5,93.5 124.5,93.5C 123.729,81.7923 119.062,71.9589 110.5,64C 114.379,59.626 118.046,55.126 121.5,50.5 Z"/></g>
<g><path style="opacity:1" fill="#e5a41c" d="M 22.5,107.5 C 25.4789,120.461 31.8122,131.461 41.5,140.5C 35.8105,147.186 30.1438,153.853 24.5,160.5C 24.5654,160.938 24.3988,161.272 24,161.5C 12.1915,148.875 5.5248,133.875 4,116.5C 3.50034,109.174 3.33368,101.841 3.5,94.5C 9.17645,94.3339 14.8431,94.5006 20.5,95C 21.3466,99.105 22.0132,103.272 22.5,107.5 Z"/></g>
<g><path style="opacity:1" fill="#185b2a" d="M 41.5,102.5 C 43.5029,111.508 47.8362,119.175 54.5,125.5C 51.1888,130.445 47.1888,134.778 42.5,138.5C 38.8132,135.647 35.6465,132.314 33,128.5C 28.5729,121.617 25.4062,114.284 23.5,106.5C 23.7507,103.091 23.4173,99.7577 22.5,96.5C 28.4632,95.5041 34.4632,95.1707 40.5,95.5C 40.9926,97.8056 41.3259,100.139 41.5,102.5 Z"/></g>
<g><path style="opacity:1" fill="#e0a11d" d="M 79.5,97.5 C 71.5317,106.307 63.6984,115.307 56,124.5C 48.3782,117.76 43.8782,109.427 42.5,99.5C 42.5,97.8333 42.5,96.1667 42.5,94.5C 55.5043,94.3334 68.5043,94.5001 81.5,95C 80.6195,95.7083 79.9528,96.5416 79.5,97.5 Z"/></g>
<g><path style="opacity:1" fill="#185b2a" d="M 85.5,96.5 C 97.6554,95.5048 109.989,95.1714 122.5,95.5C 121.991,106.732 117.657,116.066 109.5,123.5C 101.258,114.656 93.2577,105.656 85.5,96.5 Z"/></g>
<g><path style="opacity:1" fill="#e3a21c" d="M 124.5,94.5 C 130.5,94.5 136.5,94.5 142.5,94.5C 142.55,112.394 136.05,127.394 123,139.5C 118.277,135.28 114.11,130.613 110.5,125.5C 119.026,116.928 123.692,106.594 124.5,94.5 Z"/></g>
<g><path style="opacity:1" fill="#185b2a" d="M 161.5,95.5 C 163.579,118.869 157.745,139.869 144,158.5C 142.35,161.106 140.85,161.106 139.5,158.5C 134.146,152.811 129.146,146.811 124.5,140.5C 137.344,128.321 144.011,113.321 144.5,95.5C 150.167,95.5 155.833,95.5 161.5,95.5 Z"/></g>
<g><path style="opacity:1" fill="#3b2e18" d="M 84.5,96.5 C 84.5,96.8333 84.5,97.1667 84.5,97.5C 83.5048,109.655 83.1714,121.989 83.5,134.5C 82.5048,122.345 82.1714,110.011 82.5,97.5C 82.8417,96.6618 83.5084,96.3284 84.5,96.5 Z"/></g>
<g><path style="opacity:1" fill="#e5a41c" d="M 84.5,97.5 C 92.3744,106.729 100.374,115.895 108.5,125C 101.434,131.412 93.1003,134.579 83.5,134.5C 83.1714,121.989 83.5048,109.655 84.5,97.5 Z"/></g>
<g><path style="opacity:1" fill="#185a2a" d="M 80.5,97.5 C 80.8333,97.5 81.1667,97.5 81.5,97.5C 81.5,109.833 81.5,122.167 81.5,134.5C 72.447,134.261 64.447,131.261 57.5,125.5C 65.2131,116.128 72.8798,106.795 80.5,97.5 Z"/></g>
<g><path style="opacity:1" fill="#fdfdfd" d="M -0.5,117.5 C 6.9271,158.261 30.9271,182.927 71.5,191.5C 47.5,191.5 23.5,191.5 -0.5,191.5C -0.5,166.833 -0.5,142.167 -0.5,117.5 Z"/></g>
<g><path style="opacity:1" fill="#fdfdfd" d="M 165.5,119.5 C 165.5,143.5 165.5,167.5 165.5,191.5C 141.167,191.5 116.833,191.5 92.5,191.5C 132.705,183.629 157.038,159.629 165.5,119.5 Z"/></g>
<g><path style="opacity:1" fill="#e3a21c" d="M 55.5,126.5 C 63.4246,132.211 72.2579,135.544 82,136.5C 82.4995,142.491 82.6662,148.491 82.5,154.5C 68.4035,154.635 55.9035,150.302 45,141.5C 44.3333,140.5 44.3333,139.5 45,138.5C 48.7433,134.656 52.2433,130.656 55.5,126.5 Z"/></g>
<g><path style="opacity:1" fill="#185b2a" d="M 108.5,126.5 C 111.768,130.271 115.268,133.938 119,137.5C 119.982,138.759 120.315,140.092 120,141.5C 109.281,149.686 97.1144,154.019 83.5,154.5C 83.5,148.5 83.5,142.5 83.5,136.5C 89.0189,136.163 94.3523,134.996 99.5,133C 102.961,131.357 105.961,129.19 108.5,126.5 Z"/></g>
<g><path style="opacity:1" fill="#185b2a" d="M 81.5,187.5 C 62.6751,186.95 46.0084,180.783 31.5,169C 28.8823,166.894 26.8823,164.394 25.5,161.5C 30.874,154.759 36.7074,148.425 43,142.5C 54.2827,151.207 67.116,155.874 81.5,156.5C 81.5,166.833 81.5,177.167 81.5,187.5 Z"/></g>
<g><path style="opacity:1" fill="#e6a51c" d="M 138.5,159.5 C 139.8,160.601 140.3,161.934 140,163.5C 124.432,179.03 105.599,187.03 83.5,187.5C 83.1681,177.145 83.5014,166.812 84.5,156.5C 98.7451,155.42 111.412,150.42 122.5,141.5C 127.513,147.843 132.846,153.843 138.5,159.5 Z"/></g>
</svg>

<svg xmlns="http://www.w3.org/2000/svg" width="166" height="192" style="shape-rendering:geometricPrecision;text-rendering:geometricPrecision;image-rendering:optimizeQuality;fill-rule:evenodd;clip-rule:evenodd"><path style="opacity:1" fill="#0a0805" d="M-.5-.5h166v120c-8.462 40.129-32.795 64.129-73 72h-21c-40.573-8.573-64.573-33.239-72-74V-.5z"/><path style="opacity:1" fill="#e5a41c" d="M4.5 4.5a1521.602 1521.602 0 0 1 78-1c.166 9.672 0 19.34-.5 29-2.04.923-4.207 1.256-6.5 1-12.22 1.528-23.053 6.195-32.5 14a2266.781 2266.781 0 0 1-38.5-43z"/><path style="opacity:1" fill="#185b2a" d="M160.5 4.5a15495.967 15495.967 0 0 0-38.5 43c-8.555-7.247-18.389-11.913-29.5-14-2.948.277-5.78-.056-8.5-1-.5-9.66-.666-19.328-.5-29 25.839-.331 51.505.002 77 1z"/><path style="opacity:1" fill="#3b2e18" d="M160.5 5.5v-1c1.333 14.485 1.999 29.318 2 44.5 0 15.004-.333 29.837-1 44.5.331-29.505-.002-58.838-1-88z"/><path style="opacity:1" fill="#e6a51c" d="M160.5 5.5a1937.246 1937.246 0 0 1 1 88h-17c-1.277-17.56-8.277-32.56-21-45a1871.934 1871.934 0 0 0 37-43z"/><path style="opacity:1" fill="#185b2a" d="M3.5 5.5a1137.09 1137.09 0 0 1 37 43c-9.478 10.287-15.811 22.287-19 36v9h-18v-88z"/><path style="opacity:1" fill="#18170d" d="M3.5 5.5c0-.667.333-1 1-1a2266.781 2266.781 0 0 0 38.5 43c9.447-7.805 20.28-12.472 32.5-14 1.068.934 2.401 1.268 4 1-13.176.913-24.842 5.746-35 14.5L56 62.5c5.978-4.24 12.478-7.24 19.5-9 0 .667.333 1 1 1-7.084 1.542-13.417 4.709-19 9.5a1477.844 1477.844 0 0 1 23 27.5v1c0 .667-.333 1-1 1a896.386 896.386 0 0 0-23.5-28c-8.264 7.526-12.43 16.86-12.5 28l-2-4c1.676-10.018 6.009-18.685 13-26a55.55 55.55 0 0 0-12-13c-10.853 9.709-17.52 21.709-20 36 .172-.992-.162-1.658-1-2 3.189-13.713 9.522-25.713 19-36a1137.09 1137.09 0 0 0-37-43z"/><path style="opacity:1" fill="#185b2a" d="M79.5 34.5c1.956 5.912 2.623 12.245 2 19h-6c-7.022 1.76-13.522 4.76-19.5 9L44.5 49c10.158-8.754 21.824-13.587 35-14.5z"/><path style="opacity:1" fill="#e6a41c" d="M89.5 34.5c11.984 1.824 22.651 6.657 32 14.5A119.794 119.794 0 0 1 109 62.5c-6.462-4.655-13.628-7.655-21.5-9h-4v-19h6zM41.5 89.5v4h-19v-7c2.48-14.291 9.147-26.291 20-36a55.55 55.55 0 0 1 12 13c-6.991 7.315-11.324 15.982-13 26z"/><path style="opacity:1" fill="#e5a41c" d="M76.5 54.5h5a342.839 342.839 0 0 1-1 37 1477.844 1477.844 0 0 0-23-27.5c5.583-4.791 11.916-7.958 19-9.5z"/><path style="opacity:1" fill="#886522" d="M81.5 54.5a342.839 342.839 0 0 1 1 37v1h-2v-1a342.839 342.839 0 0 0 1-37z"/><path style="opacity:1" fill="#185a2a" d="M83.5 55.5c9.338-.322 17.338 2.678 24 9a647.889 647.889 0 0 1-24 27v-36z"/><path style="opacity:1" fill="#185b2a" d="M79.5 93.5h-36c.07-11.14 4.236-20.474 12.5-28a896.386 896.386 0 0 1 23.5 28z"/><path style="opacity:1" fill="#e5a41c" d="M122.5 93.5a361.581 361.581 0 0 1-38-1 797.059 797.059 0 0 1 25-27c8.552 7.302 12.885 16.635 13 28z"/><path style="opacity:1" fill="#14140b" d="M160.5 4.5v1a1871.934 1871.934 0 0 1-37 43c12.723 12.44 19.723 27.44 21 45l17 2h-17c-.489 17.821-7.156 32.821-20 45a194.424 194.424 0 0 0 15 18c-.667 0-1 .333-1 1a206.982 206.982 0 0 1-16-18c-11.088 8.92-23.755 13.92-38 15a241.136 241.136 0 0 0-1 31h-2v-31c-14.384-.626-27.217-5.293-38.5-14a181.279 181.279 0 0 0-17.5 19c0-.667-.333-1-1-1 5.644-6.647 11.31-13.314 17-20-9.688-9.039-16.021-20.039-19-33 .667 0 1-.333 1-1 1.906 7.784 5.073 15.117 9.5 22a45.048 45.048 0 0 0 9.5 10 56.993 56.993 0 0 0 12-13c-6.664-6.325-10.997-13.992-13-23 .904-.709 1.237-1.709 1-3 1.378 9.927 5.878 18.26 13.5 25a934.606 934.606 0 0 1 23.5-27h1c-7.62 9.295-15.287 18.628-23 28 6.947 5.761 14.947 8.761 24 9v-37h1a342.838 342.838 0 0 0 1 37c9.6.079 17.934-3.088 25-9.5a1638.152 1638.152 0 0 1-24-27.5v-1a359.725 359.725 0 0 1 38-3c-.115-11.365-4.448-20.698-13-28a797.059 797.059 0 0 0-25 27h-2v-1h1a647.889 647.889 0 0 0 24-27c-6.662-6.322-14.662-9.322-24-9l4-2c7.872 1.345 15.038 4.345 21.5 9A119.794 119.794 0 0 0 121.5 49c-9.349-7.843-20.016-12.676-32-14.5 1.291.237 2.291-.096 3-1 11.111 2.087 20.945 6.753 29.5 14 12.85-14.406 25.684-28.74 38.5-43z"/><path style="opacity:1" fill="#185b2a" d="M121.5 50.5c2.894 1.382 5.394 3.382 7.5 6 8.43 10.868 12.93 23.2 13.5 37h-18c-.771-11.708-5.438-21.541-14-29.5a206.95 206.95 0 0 0 11-13.5z"/><path style="opacity:1" fill="#e5a41c" d="M22.5 107.5c2.979 12.961 9.312 23.961 19 33-5.69 6.686-11.356 13.353-17 20 .065.438-.101.772-.5 1-11.809-12.625-18.475-27.625-20-45-.5-7.326-.666-14.659-.5-22 5.676-.166 11.343 0 17 .5a142.621 142.621 0 0 1 2 12.5z"/><path style="opacity:1" fill="#185b2a" d="M41.5 102.5c2.003 9.008 6.336 16.675 13 23a56.993 56.993 0 0 1-12 13 45.048 45.048 0 0 1-9.5-10c-4.427-6.883-7.594-14.216-9.5-22a28.818 28.818 0 0 0-1-10 81.872 81.872 0 0 1 18-1 51.639 51.639 0 0 1 1 7z"/><path style="opacity:1" fill="#e0a11d" d="M79.5 97.5a934.606 934.606 0 0 0-23.5 27c-7.622-6.74-12.122-15.073-13.5-25v-5c13.004-.167 26.004 0 39 .5-.88.708-1.547 1.542-2 2.5z"/><path style="opacity:1" fill="#185b2a" d="M85.5 96.5a342.84 342.84 0 0 1 37-1c-.509 11.232-4.843 20.566-13 28a764.265 764.265 0 0 1-24-27z"/><path style="opacity:1" fill="#e3a21c" d="M124.5 94.5h18c.05 17.894-6.45 32.894-19.5 45a82.665 82.665 0 0 1-12.5-14c8.526-8.572 13.192-18.906 14-31z"/><path style="opacity:1" fill="#185b2a" d="M161.5 95.5c2.079 23.369-3.755 44.369-17.5 63-1.65 2.606-3.15 2.606-4.5 0a194.424 194.424 0 0 1-15-18c12.844-12.179 19.511-27.179 20-45h17z"/><path style="opacity:1" fill="#3b2e18" d="M84.5 96.5v1a342.838 342.838 0 0 0-1 37 342.838 342.838 0 0 1-1-37c.342-.838 1.008-1.172 2-1z"/><path style="opacity:1" fill="#e5a41c" d="M84.5 97.5a1638.152 1638.152 0 0 0 24 27.5c-7.066 6.412-15.4 9.579-25 9.5a342.838 342.838 0 0 1 1-37z"/><path style="opacity:1" fill="#185a2a" d="M80.5 97.5h1v37c-9.053-.239-17.053-3.239-24-9 7.713-9.372 15.38-18.705 23-28z"/><path style="opacity:1" fill="#fdfdfd" d="M-.5 117.5c7.427 40.761 31.427 65.427 72 74h-72v-74zM165.5 119.5v72h-73c40.205-7.871 64.538-31.871 73-72z"/><path style="opacity:1" fill="#e3a21c" d="M55.5 126.5c7.925 5.711 16.758 9.044 26.5 10 .5 5.991.666 11.991.5 18-14.097.135-26.596-4.198-37.5-13-.667-1-.667-2 0-3a148.358 148.358 0 0 0 10.5-12z"/><path style="opacity:1" fill="#185b2a" d="M108.5 126.5a160.687 160.687 0 0 0 10.5 11c.982 1.259 1.315 2.592 1 4-10.719 8.186-22.886 12.519-36.5 13v-18a52.917 52.917 0 0 0 16-3.5c3.461-1.643 6.461-3.81 9-6.5zM81.5 187.5c-18.825-.55-35.492-6.717-50-18.5-2.618-2.106-4.618-4.606-6-7.5a181.279 181.279 0 0 1 17.5-19c11.283 8.707 24.116 13.374 38.5 14v31z"/><path style="opacity:1" fill="#e6a51c" d="M138.5 159.5c1.3 1.101 1.8 2.434 1.5 4-15.568 15.53-34.401 23.53-56.5 24a241.136 241.136 0 0 1 1-31c14.245-1.08 26.912-6.08 38-15a206.982 206.982 0 0 0 16 18z"/></svg>
